X:1
T:Oh Hanukkah
T:Oh Chanukah, Oh Chanukah
T:Traditional
T:www.virtualsheetmusic.com
T:1
C:Traditional
Z:All Rights Reserved
L:1/8
Q:1/4=140
M:4/4
K:F
V:1 treble nm="MusicXML Part"
%%MIDI program 52
V:1
"^Allegro" D |"Dm" A A A A d A A A |"Dm" A2 G F"A7" G2 E2 |"Dm" A2 A A d2 A A | %4
w: Oh|Ha- nuk- kah, Oh Ha- nuk- kah, a|yon- tif a shey- ner,|A lus- ti- ker a~freylek *|
w: Oh|Ha- nuk- kah, Oh Ha- nuk- kah, come|light the me- no- ra,|Let's have a par- ty, we'll|
"Dm" A2 G F"A7" G2 E2 |"Dm" F G"A7" AG"Dm" F2 F F |"A7" G2 F E"Dm" F4 | F G"A7" A G"Dm" F2"G7" FF | %8
w: her~Nisht do nokh~a zoy ner|A- le nakht _ mit dre- yd-|lech shp- iln mir,|Fri- she hey- se lat- kes, *|
w: all dance the ho- ra,|Ga- ther'round * the ta- ble,we'll *|give you a treat,|se- vi- von to play with and|
"A7" G2 F E"Dm" D4 | %9
w: esn on a shir.|
w: lat- kes to eat.|

